X: 161033
T: Porthole of the Kelp
C: Bobby Casey
R: Reel
D: C.Tully & P.Carty (Session Tape) via A.Scahill & R.Eckert
M: 4/4
L: 1/8
K: C
~F3G F2DE|FEFG ECCE|F2DE FGAG|FDEC A,DDE |
F3E FGAd|c2GF ECCE|DEFG AddB|cAGE FDD2 :||
d2Ad dcAG|F3G ECC2|d2Ad dcAG|Addc d3e |
fdec dcAG|EGcG ECCE|FEFG AddB|cAGE FDD2 :||
